X: 1
T: Chapelmount House
C: Max Houliston
R: jig
Z: 2014 John Chambers <jc:trillian.mit.edu>
S: PDF image of set for The Brudenell Jig, from George Meikle, 2012
M: 6/8
L: 1/8
K: D
A |\
"D"DED F2A | "A7"GFE "D"D3 | "D"DDD "Bm"DFd | "E7"B3 "A7"ABc |\
"D"dcd "Bm"dFG | "F#m"AGF "A7"EFG | "D"ADD "E7"DEF | "A7"E3 "D"D2 :|
{G}F |\
"Em"E2F "A7"GFE | "D"FDB A3 | "Em"E2F "A7"GFE | "Bm"F3 B,3 |\
"Em"E2F "A7"GFE | "D"FDB "A"ABc | "Bm"dDD "E7"DEF | "A"E3 "D"D2 |]
{G}F |\
"Em"E2F "A7"GFE | "D"FDB A3 | "Em"E2F "A7"GFE | "D"F3 "A7"ABc |\
"D"dcd "Bm"dFG | "F#m"AGF "A7"EFG | "D"ADD "E7"DEF | "A7"E3 "D"D2 :|
